X:59
T:Ar Fore Dydd Nadolig - On Christmas Morning
M:2/4
L:1/8
Q:160
C:Trad.
R:Carol
K:G
A2 | AA AB | GA EF | GA GF|
FE A2 | AA AB | GA A2 |
AA A>G | FG A>G | FG A2 |
GF E4 || A2 AG/2A/2 | B/2A/2G A2|
EF GA | GF E4 ||
